X: 3310
T: The MARBLE HALLS
%R: waltz
N: This is version 2, for ABC software that uses "[_^]..." or !...! style ornaments.
B: James Kerr "Merry Melodies" v.3 p.33 #310 (and p.34, top staff)
Z: 2016 John Chambers <jc:trillian.mit.edu>
M: 3/4
L: 1/4
K: G
d |\
dgf | dfe | ded | "^^"B2"^^"B |\
dc^G | Adc | B/A/G2- | Gdd |\
dgf | dfe | ded | B2B |\
dc^G | Adc | (B/A/) G2- | G2 |]
ud |\
eag | _eag | dag | d2d |\
^cde | "^^"f2"^^"f | f3- | fed |\
dgf | dfe | ded | B2B |\
dcA | def | "_D.C. to Allegro."g3- | gz |]

%%sep 1 1 500
%%sep 1 1 500

